symbols/be/PVO-{30}.svg

<?xml version="1.0" encoding="UTF-8" standalone="no"?>
<!-- Initially created with Inkscape, optimized by hand -->

<svg
   version="1.1"
   width="20"
   height="14.096813"
   id="svg1"
   xmlns="http://www.w3.org/2000/svg"
   xmlns:svg="http://www.w3.org/2000/svg">
  <defs
     id="defs1" />
  <rect
     x="0"
     y="0"
     width="20"
     height="14.096812"
     style="fill:#ffffff;stroke:none;stroke-width:0.0590319"
     id="Fond" />
  <circle
     cx="10"
     cy="7.0484047"
     r="5.8441563"
     style="fill:none;stroke:#000000;stroke-width:0.590319"
     id="circle1" />
  <path
     d="m 11.802675,8.8137426 v -0.704002 c 0,-0.597336 -0.277334,-1.184004 -0.693335,-1.429338 0.352001,-0.288001 0.640002,-0.810669 0.640002,-1.397338 0,-0.501335 -0.128001,-0.864003 -0.437335,-1.216004 -0.288001,-0.330668 -0.778669,-0.565335 -1.3333366,-0.565335 h -1.429338 c -0.192001,0 -0.352001,0.170667 -0.352001,0.362668 0,0.192 0.16,0.352001 0.352001,0.352001 h 1.429338 c 0.3306666,0 0.6080016,0.128 0.7893346,0.330668 0.213334,0.224 0.277335,0.725335 0.277335,0.725335 0,0.330668 -0.096,0.565335 -0.341335,0.789336 -0.224,0.202667 -0.426668,0.266668 -0.7253346,0.266668 h -0.672003 c -0.192,0 -0.352001,0.16 -0.352001,0.352001 0,0.192 0.160001,0.362668 0.352001,0.362668 h 0.7146686 c 0.298668,0 0.512002,0.064 0.725336,0.266667 0.256001,0.224001 0.341334,0.458668 0.341334,0.800003 v 0.704002 c 0,0.309334 -0.05333,0.512001 -0.266667,0.746669 -0.181334,0.192 -0.458668,0.320001 -0.800003,0.320001 H 8.6026654 c -0.192,0 -0.352001,0.1706674 -0.352001,0.3626684 0,0.192 0.160001,0.352001 0.352001,0.352001 h 1.4186706 c 0.565336,0 1.045337,-0.224001 1.344005,-0.565335 0.298667,-0.3413354 0.437334,-0.7040034 0.437334,-1.2160044 z"
     id="text1"
     style="font-size:10.6667px;font-family:Isonorm;-inkscape-font-specification:'Isonorm, Normal';fill-rule:evenodd;stroke-width:0.0944511"
     aria-label="3" />
</svg>

<?xml version="1.0" encoding="UTF-8"?>
<svg xmlns="http://www.w3.org/2000/svg" xmlns:xlink="http://www.w3.org/1999/xlink" width="20" height="14.096813" viewBox="0 0 20 14.096813">
<path fill-rule="nonzero" fill="rgb(100%, 100%, 100%)" fill-opacity="1" d="M 0 0 L 20 0 L 20 14.097656 L 0 14.097656 Z M 0 0 "/>
<path fill="none" stroke-width="0.590319" stroke-linecap="butt" stroke-linejoin="miter" stroke="rgb(0%, 0%, 0%)" stroke-opacity="1" stroke-miterlimit="4" d="M 15.84375 7.046875 C 15.84375 10.277344 13.226562 12.890625 10 12.890625 C 6.773438 12.890625 4.15625 10.277344 4.15625 7.046875 C 4.15625 3.820312 6.773438 1.203125 10 1.203125 C 13.226562 1.203125 15.84375 3.820312 15.84375 7.046875 Z M 15.84375 7.046875 "/>
<path fill-rule="evenodd" fill="rgb(0%, 0%, 0%)" fill-opacity="1" d="M 11.800781 8.8125 L 11.800781 8.109375 C 11.800781 7.511719 11.523438 6.925781 11.109375 6.679688 C 11.460938 6.390625 11.75 5.871094 11.75 5.28125 C 11.75 4.78125 11.621094 4.417969 11.3125 4.066406 C 11.023438 3.738281 10.535156 3.5 9.980469 3.5 L 8.550781 3.5 C 8.355469 3.5 8.199219 3.671875 8.199219 3.863281 C 8.199219 4.054688 8.355469 4.214844 8.550781 4.214844 L 9.980469 4.214844 C 10.308594 4.214844 10.585938 4.34375 10.769531 4.546875 C 10.980469 4.769531 11.046875 5.273438 11.046875 5.273438 C 11.046875 5.601562 10.949219 5.835938 10.703125 6.0625 C 10.480469 6.265625 10.277344 6.328125 9.980469 6.328125 L 9.308594 6.328125 C 9.113281 6.328125 8.953125 6.488281 8.953125 6.679688 C 8.953125 6.871094 9.113281 7.042969 9.308594 7.042969 L 10.019531 7.042969 C 10.320312 7.042969 10.535156 7.105469 10.746094 7.308594 C 11.003906 7.535156 11.089844 7.769531 11.089844 8.109375 L 11.089844 8.8125 C 11.089844 9.125 11.035156 9.324219 10.820312 9.558594 C 10.640625 9.753906 10.363281 9.878906 10.019531 9.878906 L 8.601562 9.878906 C 8.410156 9.878906 8.25 10.050781 8.25 10.242188 C 8.25 10.433594 8.410156 10.59375 8.601562 10.59375 L 10.019531 10.59375 C 10.585938 10.59375 11.066406 10.371094 11.367188 10.03125 C 11.664062 9.6875 11.800781 9.324219 11.800781 8.8125 Z M 11.800781 8.8125 "/>
</svg>
